16x16/actions/upcomingevents-amarok.svg

<svg xmlns="http://www.w3.org/2000/svg" viewBox="0 0 16 16">
  <defs id="defs3051">
    <style type="text/css" id="current-color-scheme">
      .ColorScheme-Text {
        color:#5d656b;
      }
      .ColorScheme-NegativeText {
        color:#da4453;
      }
      </style>
  </defs>
 <path 
     style="fill:currentColor;fill-opacity:1;stroke:none" 
     d="m2 2v12h12v-12h-2v2h-2v-2h-4v2h-2v-2m-1 3h10v8h-10z"
     class="ColorScheme-Text"/>
 <path 
     d="m7 6v4h2v-4h-2m0 5v1h2v-1h-2"  style="fill:currentColor;fill-opacity:1;stroke:none" 
     class="ColorScheme-NegativeText"
    />
</svg>

<svg xmlns="http://www.w3.org/2000/svg" viewBox="0 0 16 16"><path style="fill:currentColor;fill-opacity:1;stroke:none;color:#5d656b" d="M2 2v12h12V2h-2v2h-2V2H6v2H4V2M3 5h10v8H3z"/><path d="M7 6v4h2V6H7m0 5v1h2v-1H7" style="fill:currentColor;fill-opacity:1;stroke:none;color:#da4453"/></svg>
